X: 49
M: C
L: 1/8
K: Em
(B>A) | G3 F E2 (Bd) | (ed) (Bd) e2 g2 |
d2 (cB) g2 B2 | {c}B2 (AG) A2 (B>A) |
(g>ag) f (e>fg) e | d2 (B>c) B2 |:
d2 | g3 a g2 G2 | (B>c) (d>e) d2 (cB) |
g3 a g2 (fe) | (f>ga) b a2 (ga) |
b2 (Ta>g) g2 G2 | B2 d2 b3 a |
(g>ag) f (e>fg) e | d2 (B>c) B2 :|

